X:1
T:Tunbridge, 77.77
T:Jeremiah Clark (1670-1707)
T:Tunbridge, 77.77
T:Public Domain
C:Jeremiah Clark (1670-1707)
Z:Public Domain
%%score ( 1 2 ) ( 3 4 )
L:1/8
M:4/4
K:Bb
V:1 treble 
V:2 treble 
V:3 bass 
V:4 bass 
V:1
 [DG]2 (B,C) [DA]2 (DC) | [B,E]2 C2 [A,D]4 | (DE) [Fd]2 [Fc]2 F2 | (B,E)(DC) [DB]4 | %4
 D2 [DG]2 [C=E]2 [CE]2 | (CD) [EA]2 [D^F]4 | [Dd]2 D2 (DC)(AB) | ([Dc][GB])([^FA]G) [DG]4 |] %8
V:2
 x2 B2 x D2 x | x2 C2 x4 | B2 x3 F2 x | G2 A2 x4 | D2 x6 | c2 x6 | x2 D2 G2 E2 | x8 |] %8
V:3
 [G,B,]2 G,2 [G,A,]2 [^F,A,]2 | G,2 [E,G,]2 (G,2 ^F,2) | [B,,F,]2 (F,G,) (F,E,)(B,A,) | %3
 [E,G,]2 F,2 [B,,F,]4 | (B,C)(B,A,) (C,D,)(C,B,,) | (ED)(CB,) (D,2 C,2) | %6
 [B,,G,]2 [B,,G,]2 [E,G,]2 [C,G,]2 | [D,G,]2 [D,C]2 [G,,B,]4 |] %8
V:4
 x2 G,2 x4 | G,2 D,4 x2 | x2 B,,2 A,2 D,2 | x2 F,2 x4 | B,,2 G,,2 G,2 C2 | A,,2 C,2 A,4 | x8 | %7
 x8 |] %8

